build/img/icon-form.svg

<svg width="61" height="91" viewBox="0 0 61 91"   xmlns="http://www.w3.org/2000/svg">
<path d="M60.5576 22.6809L42.6666 0.918681C42.3832 0.57415 41.9992 0.380615 41.5988 0.380615H7.33856C3.29196 0.380615 0 4.38526 0 9.30747V81.4539C0 86.376 3.29211 90.3806 7.3387 90.3806H53.6613C57.7079 90.3806 61 86.3762 61 81.4539V23.9797C60.9999 23.4926 60.8407 23.0254 60.5576 22.6809ZM43.1092 6.6523L55.8446 22.1432H47.428C46.2742 22.1432 45.1895 21.5967 44.3739 20.6046C43.5581 19.6126 43.1091 18.2934 43.1092 16.8901V6.6523ZM57.9799 81.4538C57.9799 84.3505 56.0425 86.707 53.6613 86.707H7.33856C4.95716 86.707 3.01985 84.3505 3.01985 81.4538V9.30747C3.01999 6.41078 4.95731 4.05409 7.33856 4.05409H40.0892V16.8898C40.089 19.2743 40.8523 21.516 42.2383 23.2019C43.6244 24.888 45.4674 25.8165 47.4278 25.8165H57.9797V81.4538H57.9799Z"/>
<path d="M14.8624 53.7729H14.1864C13.3526 53.7729 12.6764 54.5955 12.6764 55.6102C12.6764 56.6249 13.3526 57.4474 14.1864 57.4474H14.8624C15.6962 57.4474 16.3724 56.6249 16.3724 55.6102C16.3724 54.5955 15.6962 53.7729 14.8624 53.7729Z"/>
<path d="M46.8136 53.7729H19.7473C18.9135 53.7729 18.2373 54.5955 18.2373 55.6102C18.2373 56.6249 18.9135 57.4474 19.7473 57.4474H46.8136C47.6475 57.4474 48.3236 56.6249 48.3236 55.6102C48.3236 54.5955 47.6475 53.7729 46.8136 53.7729Z"/>
<path d="M14.8624 45.3804H14.1864C13.3526 45.3804 12.6764 46.2027 12.6764 47.2171C12.6764 48.2316 13.3526 49.0539 14.1864 49.0539H14.8624C15.6962 49.0539 16.3724 48.2316 16.3724 47.2171C16.3724 46.2027 15.6962 45.3804 14.8624 45.3804Z"/>
<path d="M46.8136 45.3804H19.7473C18.9135 45.3804 18.2373 46.2027 18.2373 47.2171C18.2373 48.2316 18.9135 49.0539 19.7473 49.0539H46.8136C47.6475 49.0539 48.3236 48.2316 48.3236 47.2171C48.3236 46.2027 47.6475 45.3804 46.8136 45.3804Z"/>
<path d="M14.8624 36.988H14.1864C13.3526 36.988 12.6764 37.8103 12.6764 38.8248C12.6764 39.8392 13.3526 40.6615 14.1864 40.6615H14.8624C15.6962 40.6615 16.3724 39.8392 16.3724 38.8248C16.3724 37.8103 15.6962 36.988 14.8624 36.988Z"/>
<path d="M46.8136 36.988H19.7473C18.9135 36.988 18.2373 37.8103 18.2373 38.8248C18.2373 39.8392 18.9135 40.6615 19.7473 40.6615H46.8136C47.6475 40.6615 48.3236 39.8392 48.3236 38.8248C48.3236 37.8103 47.6475 36.988 46.8136 36.988Z"/>
</svg>

<svg xmlns="http://www.w3.org/2000/svg" xmlns:xlink="http://www.w3.org/1999/xlink" width="61" height="91"><path d="M60.558 22.68L42.667.92C42.383.574 42 .38 41.6.38H7.34C3.292.38 0 4.385 0 9.307v72.146c0 4.922 3.292 8.927 7.34 8.927h46.32c4.047 0 7.34-4.004 7.34-8.927V23.98a2.07 2.07 0 0 0-.442-1.3zM43.1 6.652l12.735 15.5h-8.417c-1.154 0-2.238-.547-3.054-1.54s-1.265-2.3-1.265-3.715V6.652zm14.87 74.802c0 2.897-1.937 5.253-4.32 5.253H7.34c-2.38 0-4.32-2.356-4.32-5.253V9.307c0-2.897 1.937-5.253 4.32-5.253H40.1V16.9c0 2.384.763 4.626 2.15 6.312s3.23 2.615 5.2 2.615h10.55v55.637zm-43.118-27.68h-.676c-.834 0-1.5.823-1.5 1.837s.676 1.837 1.5 1.837h.676c.834 0 1.5-.823 1.5-1.837s-.676-1.837-1.5-1.837zm31.952 0H19.747c-.834 0-1.5.823-1.5 1.837s.676 1.837 1.5 1.837h27.066c.834 0 1.5-.823 1.5-1.837s-.676-1.837-1.5-1.837z"/><use xlink:href="#B"/><use xlink:href="#C"/><use xlink:href="#B" y="-8.392"/><use xlink:href="#C" y="-8.392"/><defs ><path id="B" d="M14.862 45.38h-.676c-.834 0-1.5.822-1.5 1.837s.676 1.837 1.5 1.837h.676c.834 0 1.5-.822 1.5-1.837s-.676-1.837-1.5-1.837z"/><path id="C" d="M46.814 45.38H19.747c-.834 0-1.5.822-1.5 1.837s.676 1.837 1.5 1.837h27.066c.834 0 1.5-.822 1.5-1.837s-.676-1.837-1.5-1.837z"/></defs></svg>
